packages/symbols/svgs/outline/calendar-outline.svg

<svg width="24" height="24" viewBox="0 0 24 24" fill="none" xmlns="http://www.w3.org/2000/svg">
<path fill-rule="evenodd" clip-rule="evenodd" d="M7 1C7 0.447715 6.55228 0 6 0C5.44772 0 5 0.447715 5 1V2H3C1.34315 2 0 3.34315 0 5L0 8L0 20C0 21.6569 1.34315 23 3 23H21C22.6569 23 24 21.6569 24 20V8V5C24 3.34315 22.6569 2 21 2H19V1C19 0.447715 18.5523 0 18 0C17.4477 0 17 0.447715 17 1V2H7V1ZM22 7V5C22 4.44772 21.5523 4 21 4H19C19 4.55228 18.5523 5 18 5C17.4477 5 17 4.55228 17 4H7C7 4.55228 6.55228 5 6 5C5.44772 5 5 4.55228 5 4H3C2.44772 4 2 4.44772 2 5V7H22ZM2 9H22V20C22 20.5523 21.5523 21 21 21H3C2.44772 21 2 20.5523 2 20V9Z" fill="black"/>
<path fill-rule="evenodd" clip-rule="evenodd" d="M4 12C4 11.4477 4.44772 11 5 11H7C7.55228 11 8 11.4477 8 12V13C8 13.5523 7.55228 14 7 14H5C4.44772 14 4 13.5523 4 13V12ZM10 12C10 11.4477 10.4477 11 11 11H13C13.5523 11 14 11.4477 14 12V13C14 13.5523 13.5523 14 13 14H11C10.4477 14 10 13.5523 10 13V12ZM5 16C4.44772 16 4 16.4477 4 17V18C4 18.5523 4.44772 19 5 19H7C7.55228 19 8 18.5523 8 18V17C8 16.4477 7.55228 16 7 16H5ZM10 17C10 16.4477 10.4477 16 11 16H13C13.5523 16 14 16.4477 14 17V18C14 18.5523 13.5523 19 13 19H11C10.4477 19 10 18.5523 10 18V17ZM17 11C16.4477 11 16 11.4477 16 12V13C16 13.5523 16.4477 14 17 14H19C19.5523 14 20 13.5523 20 13V12C20 11.4477 19.5523 11 19 11H17Z" fill="black"/>
</svg>

<svg width="24" height="24" viewBox="0 0 24 24" xmlns="http://www.w3.org/2000/svg"><path fill-rule="evenodd" clip-rule="evenodd" d="M7 1a1 1 0 0 0-2 0v1H3a3 3 0 0 0-3 3v15a3 3 0 0 0 3 3h18a3 3 0 0 0 3-3V5a3 3 0 0 0-3-3h-2V1a1 1 0 1 0-2 0v1H7V1Zm15 6V5a1 1 0 0 0-1-1h-2a1 1 0 1 1-2 0H7a1 1 0 0 1-2 0H3a1 1 0 0 0-1 1v2h20ZM2 9h20v11a1 1 0 0 1-1 1H3a1 1 0 0 1-1-1V9Z"/><path fill-rule="evenodd" clip-rule="evenodd" d="M4 12a1 1 0 0 1 1-1h2a1 1 0 0 1 1 1v1a1 1 0 0 1-1 1H5a1 1 0 0 1-1-1v-1Zm6 0a1 1 0 0 1 1-1h2a1 1 0 0 1 1 1v1a1 1 0 0 1-1 1h-2a1 1 0 0 1-1-1v-1Zm-5 4a1 1 0 0 0-1 1v1a1 1 0 0 0 1 1h2a1 1 0 0 0 1-1v-1a1 1 0 0 0-1-1H5Zm5 1a1 1 0 0 1 1-1h2a1 1 0 0 1 1 1v1a1 1 0 0 1-1 1h-2a1 1 0 0 1-1-1v-1Zm7-6a1 1 0 0 0-1 1v1a1 1 0 0 0 1 1h2a1 1 0 0 0 1-1v-1a1 1 0 0 0-1-1h-2Z"/></svg>
